assets/icons/twitter-square.svg

<?xml version="1.0" encoding="UTF-8"?>
<svg width="31px" height="31px" viewBox="0 0 31 31" version="1.1" xmlns="http://www.w3.org/2000/svg" xmlns:xlink="http://www.w3.org/1999/xlink">
    <!-- Generator: Sketch 59.1 (86144) - https://sketch.com -->
    <title>twitter-square</title>
    <desc>Created with Sketch.</desc>
    <defs>
        <path d="M29.5312501,2.18749994 L5.46874995,2.18749994 C3.6572265,2.18749994 2.18749994,3.6572265 2.18749994,5.46874995 L2.18749994,29.5312501 C2.18749994,31.3427735 3.6572265,32.8125001 5.46874995,32.8125001 L29.5312501,32.8125001 C31.3427735,32.8125001 32.8125001,31.3427735 32.8125001,29.5312501 L32.8125001,5.46874995 C32.8125001,3.6572265 31.3427735,2.18749994 29.5312501,2.18749994 Z M26.1884766,13.0429687 C26.2021485,13.234375 26.2021485,13.4326172 26.2021485,13.6240234 C26.2021485,19.5507813 21.6904297,26.3798828 13.446289,26.3798828 C10.9033203,26.3798828 8.54492184,25.6416016 6.56249995,24.3701172 C6.92480464,24.4111328 7.27343746,24.4248047 7.64257808,24.4248047 C9.74121091,24.4248047 11.6689453,23.7138672 13.2070312,22.5107422 C11.2382812,22.4697266 9.58398434,21.1777344 9.01660153,19.4003906 C9.70703122,19.5029297 10.3291015,19.5029297 11.040039,19.3183594 C8.98925778,18.9013672 7.45117183,17.0966797 7.45117183,14.9160156 L7.45117183,14.8613281 C8.0458984,15.1962891 8.74316403,15.4013672 9.47460934,15.4287109 C8.22557976,14.5978962 7.4760597,13.1963964 7.47851558,11.696289 C7.47851558,10.8623047 7.69726558,10.0966797 8.08691402,9.43359372 C10.2949218,12.1542969 13.6103515,13.9316406 17.3291016,14.1230469 C16.6933594,11.0810547 18.9697266,8.61328121 21.7041016,8.61328121 C22.9960938,8.61328121 24.1582032,9.15332028 24.9785157,10.0283203 C25.9902344,9.83691403 26.9609375,9.46093747 27.8222657,8.94824215 C27.4873047,9.98730466 26.7832032,10.8623047 25.8535157,11.4160156 C26.7558594,11.3203125 27.6308594,11.0673828 28.4375,10.71875 C27.8291016,11.6142578 27.0634766,12.4072265 26.1884766,13.0429687 L26.1884766,13.0429687 Z" id="path-1"></path>
    </defs>
    <g id="Page-1" stroke="none" stroke-width="1" fill="none" fill-rule="evenodd">
        <g id="Desktop-HD-1" transform="translate(-1208.000000, -6486.000000)">
            <g id="footer" transform="translate(-0.000000, 6418.000000)">
                <g id="social_media" transform="translate(1106.000000, 66.000000)">
                    <g id="twitter-square" transform="translate(100.000000, 0.000000)">
                        <mask id="mask-2" fill="white">
                            <use xlink:href="#path-1"></use>
                        </mask>
                        <g fill-rule="nonzero"></g>
                        <g id="color/white" mask="url(#mask-2)" fill="#FFFFFF" fill-rule="evenodd">
                            <rect id="Rectangle" x="0" y="0" width="35" height="35"></rect>
                        </g>
                    </g>
                </g>
            </g>
        </g>
    </g>
</svg>

<svg xmlns="http://www.w3.org/2000/svg" xmlns:xlink="http://www.w3.org/1999/xlink" width="31" height="31" viewBox="0 0 31 31"><defs><path id="a" d="M29.531 2.187H5.47A3.282 3.282 0 0 0 2.187 5.47v24.06a3.282 3.282 0 0 0 3.282 3.282H29.53a3.282 3.282 0 0 0 3.282-3.282V5.47a3.282 3.282 0 0 0-3.282-3.282zm-3.343 10.856c.014.191.014.39.014.581 0 5.927-4.512 12.756-12.756 12.756-2.543 0-4.901-.738-6.884-2.01.363.041.711.055 1.08.055 2.1 0 4.027-.711 5.565-1.914a4.49 4.49 0 0 1-4.19-3.11c.69.102 1.312.102 2.023-.083a4.484 4.484 0 0 1-3.589-4.402v-.055a4.48 4.48 0 0 0 2.024.568 4.474 4.474 0 0 1-1.996-3.733c0-.834.218-1.6.608-2.262a12.73 12.73 0 0 0 9.242 4.689c-.636-3.042 1.64-5.51 4.375-5.51a4.47 4.47 0 0 1 3.275 1.415 8.785 8.785 0 0 0 2.843-1.08 4.472 4.472 0 0 1-1.968 2.468 8.922 8.922 0 0 0 2.584-.697 9.437 9.437 0 0 1-2.25 2.324z"/></defs><g fill="none" fill-rule="evenodd" transform="translate(-2 -2)"><mask id="b" fill="#fff"><use xlink:href="#a"/></mask><g fill="#FFF" mask="url(#b)"><path d="M0 0h35v35H0z"/></g></g></svg>
